X: 27369
T: Mná Na hÉireann
R: barndance
M: 4/4
K: Cmajor
D3E||"F" F2 (c6|c4) d3c|"G/F" B2 (D6|D4) D3E|
"F" (F8|F2) GF E2 F2|"G/F" (D8|D4)|D3 E|
"Dm7" F2 (c6|c4) d3c|"Em7" B2 (D6|D4) D3E|
"F" (F8|F2) GF E2 F2|"F/G" (G8|G2) GF D2 EG|"C" C4 "C/B" C3C||
"Am7" c6 de|d3 c A3 G|"C/F" A6 GF|"G" E4 "E7/G" D4|
"Am" c6 de|"Am/G" d3 c A3 G|"F" A6 D2|"Dm7" D2 ED "F/G" C3 C|"C" (C8|C4)||

